humanity-icon-theme/Humanity/actions/22/document-properties.svg

<?xml version="1.0" encoding="UTF-8" standalone="no"?>
<!-- Created with Inkscape (http://www.inkscape.org/) -->

<svg
   xmlns:svg="http://www.w3.org/2000/svg"
   xmlns="http://www.w3.org/2000/svg"
   xmlns:xlink="http://www.w3.org/1999/xlink"
   version="1.0"
   width="22"
   height="22"
   id="svg2">
  <defs
     id="defs4">
    <linearGradient
       id="linearGradient5128">
      <stop
         id="stop5130"
         style="stop-color:#eee;stop-opacity:1"
         offset="0" />
      <stop
         id="stop5132"
         style="stop-color:#a2a2a2;stop-opacity:1"
         offset="1" />
    </linearGradient>
    <linearGradient
       x1="86.132919"
       y1="105.105"
       x2="84.63858"
       y2="20.895"
       id="linearGradient2423"
       xlink:href="#linearGradient5128"
       gradientUnits="userSpaceOnUse"
       gradientTransform="matrix(0.1562313,0,0,0.1562313,2.0012016,2.1574324)" />
    <linearGradient
       id="linearGradient3397">
      <stop
         id="stop3399"
         style="stop-color:#aaa;stop-opacity:1"
         offset="0" />
      <stop
         id="stop3401"
         style="stop-color:#8c8c8c;stop-opacity:1"
         offset="1" />
    </linearGradient>
    <linearGradient
       x1="40"
       y1="1"
       x2="40"
       y2="23.000202"
       id="linearGradient2421"
       xlink:href="#linearGradient3397"
       gradientUnits="userSpaceOnUse"
       gradientTransform="translate(-24.5,0)" />
    <linearGradient
       x1="63.9995"
       y1="3.1001"
       x2="63.9995"
       y2="122.8994"
       id="linearGradient3309"
       gradientUnits="userSpaceOnUse">
      <stop
         id="stop3311"
         style="stop-color:#f6f6f6;stop-opacity:1"
         offset="0" />
      <stop
         id="stop3313"
         style="stop-color:#d2d2d2;stop-opacity:1"
         offset="1" />
    </linearGradient>
    <linearGradient
       x1="34"
       y1="1"
       x2="34"
       y2="23.007294"
       id="linearGradient2419"
       xlink:href="#linearGradient3309"
       gradientUnits="userSpaceOnUse"
       gradientTransform="translate(-24.5,0)" />
  </defs>
  <g
     id="layer1">
    <g
       transform="translate(-1,-1)"
       id="g2414">
      <path
         d="M 10.1875,1.5 C 9.799134,1.5 9.5,1.7991339 9.5,2.1875 l 0,1.6875 C 8.988333,4.0322247 8.496816,4.2537684 8.03125,4.5 L 6.84375,3.3125 c -0.274616,-0.2746162 -0.725384,-0.2746162 -1,0 L 3.3125,5.84375 c -0.274616,0.2746162 -0.274616,0.7253836 0,1 L 4.5,8.03125 C 4.253769,8.4968155 4.032225,8.9883329 3.875,9.5 l -1.6875,0 C 1.799134,9.5 1.5,9.7991344 1.5,10.1875 l 0,3.625 C 1.5,14.200866 1.799134,14.5 2.1875,14.5 l 1.6875,0 c 0.157225,0.511667 0.378769,1.003185 0.625,1.46875 l -1.1875,1.1875 c -0.274616,0.274616 -0.274616,0.725384 0,1 l 2.53125,2.53125 c 0.274616,0.274616 0.725384,0.274616 1,0 L 8.03125,19.5 C 8.496816,19.746232 8.988333,19.967775 9.5,20.125 l 0,1.6875 c 0,0.388366 0.299135,0.6875 0.6875,0.6875 l 3.625,0 c 0.388366,0 0.6875,-0.299134 0.6875,-0.6875 l 0,-1.6875 c 0.511667,-0.157225 1.003185,-0.378768 1.46875,-0.625 l 1.1875,1.1875 c 0.274616,0.274616 0.725384,0.274616 1,0 l 2.53125,-2.53125 c 0.274616,-0.274616 0.274616,-0.725384 0,-1 L 19.5,15.96875 C 19.746232,15.503185 19.967775,15.011667 20.125,14.5 l 1.6875,0 c 0.388366,0 0.6875,-0.299134 0.6875,-0.6875 l 0,-3.625 C 22.5,9.7991341 22.200866,9.5 21.8125,9.5 l -1.6875,0 C 19.967775,8.9883329 19.746232,8.4968155 19.5,8.03125 l 1.1875,-1.1875 c 0.274616,-0.2746162 0.274616,-0.7253837 0,-1 L 18.15625,3.3125 c -0.274616,-0.2746162 -0.725384,-0.2746162 -1,0 L 15.96875,4.5 C 15.503185,4.2537684 15.011667,4.0322247 14.5,3.875 l 0,-1.6875 C 14.5,1.7991341 14.200866,1.5 13.8125,1.5 l -3.625,0 z M 12,9 c 1.656,0 3,1.344 3,3 0,1.656 -1.344,3 -3,3 -1.656,0 -3,-1.344 -3,-3 0,-1.656 1.344,-3 3,-3 z"
         id="rect2426"
         style="fill:url(#linearGradient2419);fill-opacity:1;fill-rule:nonzero;stroke:url(#linearGradient2421);stroke-width:1;stroke-linecap:butt;stroke-linejoin:round;stroke-miterlimit:4;stroke-opacity:1;stroke-dasharray:none;stroke-dashoffset:0;marker:none;visibility:visible;display:block;overflow:visible;enable-background:accumulate" />
      <path
         d="m 12,6 c -3.3084557,-2e-7 -5.9999999,2.6915446 -5.9999999,6 0,3.308455 2.6915442,6 5.9999999,6 3.308455,-1e-6 6,-2.691545 6,-6 0,-3.3084554 -2.691545,-6 -6,-6 z m 0,2.7692308 c 1.783385,0 3.230769,1.4473842 3.230769,3.2307692 0,1.783385 -1.447384,3.230769 -3.230769,3.230769 -1.783385,0 -3.2307692,-1.447384 -3.2307692,-3.230769 0,-1.783385 1.4473842,-3.2307692 3.2307692,-3.2307692 z"
         id="path3315"
         style="opacity:0.05;fill:black;fill-opacity:1;stroke:none" />
      <path
         d="m 11.999999,5.4999995 c -3.5840997,0 -6.4999994,2.9158997 -6.4999994,6.4999995 C 5.4999996,15.5841 8.4158993,18.5 11.999999,18.5 15.584101,18.5 18.5,15.5841 18.5,11.999999 18.5,8.4158992 15.584101,5.4999995 11.999999,5.4999995 z"
         id="path28"
         style="fill:none;stroke:url(#linearGradient2423);stroke-width:1;stroke-miterlimit:4;stroke-dasharray:none" />
    </g>
  </g>
</svg>

<?xml version="1.0" encoding="UTF-8" standalone="no"?>
<!-- Created with Inkscape (http://www.inkscape.org/) -->
<svg id="svg2" xmlns="http://www.w3.org/2000/svg" height="22" width="22" version="1.0" xmlns:xlink="http://www.w3.org/1999/xlink">
 <defs id="defs4">
  <linearGradient id="linearGradient2423" y2="20.895" gradientUnits="userSpaceOnUse" x2="84.639" gradientTransform="matrix(.15623 0 0 .15623 2.0012 2.1574)" y1="105.1" x1="86.133">
   <stop id="stop5130" style="stop-color:#eee" offset="0"/>
   <stop id="stop5132" style="stop-color:#a2a2a2" offset="1"/>
  </linearGradient>
  <linearGradient id="linearGradient2421" y2="23" gradientUnits="userSpaceOnUse" x2="40" gradientTransform="translate(-24.5)" y1="1" x1="40">
   <stop id="stop3399" style="stop-color:#aaa" offset="0"/>
   <stop id="stop3401" style="stop-color:#8c8c8c" offset="1"/>
  </linearGradient>
  <linearGradient id="linearGradient2419" y2="23.007" gradientUnits="userSpaceOnUse" x2="34" gradientTransform="translate(-24.5)" y1="1" x1="34">
   <stop id="stop3311" style="stop-color:#f6f6f6" offset="0"/>
   <stop id="stop3313" style="stop-color:#d2d2d2" offset="1"/>
  </linearGradient>
 </defs>
 <g id="layer1">
  <g id="g2414" transform="translate(-1,-1)">
   <path id="rect2426" style="stroke-linejoin:round;stroke:url(#linearGradient2421);display:block;fill:url(#linearGradient2419)" d="m10.188 1.5c-0.3889 0-0.688 0.2991-0.688 0.6875v1.6875c-0.5117 0.1572-1.0032 0.3788-1.4688 0.625l-1.1874-1.1875c-0.27462-0.27462-0.72538-0.27462-1 0l-2.5313 2.5313c-0.27462 0.27462-0.27462 0.72538 0 1l1.1875 1.1874c-0.2462 0.4656-0.4678 0.9571-0.625 1.4688h-1.6875c-0.3884 0-0.6875 0.2991-0.6875 0.688v3.625c0 0.388 0.2991 0.687 0.6875 0.687h1.6875c0.15722 0.51167 0.37877 1.0032 0.625 1.4688l-1.1875 1.1875c-0.27462 0.27462-0.27462 0.72538 0 1l2.5312 2.5312c0.27462 0.27462 0.72538 0.27462 1 0l1.1875-1.187c0.4656 0.246 0.9571 0.468 1.4688 0.625v1.6875c0 0.38837 0.29914 0.6875 0.6875 0.6875h3.625c0.38837 0 0.6875-0.29913 0.6875-0.6875v-1.6875c0.51167-0.15722 1.0032-0.37877 1.4688-0.625l1.1875 1.1875c0.27462 0.27462 0.72538 0.27462 1 0l2.5312-2.5312c0.27462-0.27462 0.27462-0.72538 0-1l-1.187-1.186c0.246-0.466 0.468-0.957 0.625-1.469h1.6875c0.38837 0 0.6875-0.29913 0.6875-0.6875v-3.625c0-0.3879-0.299-0.687-0.688-0.687h-1.6875c-0.156-0.5117-0.378-1.0032-0.624-1.4688l1.1875-1.1875c0.27462-0.27462 0.27462-0.72538 0-1l-2.532-2.5312c-0.27462-0.27462-0.72538-0.27462-1 0l-1.187 1.1875c-0.466-0.2462-0.957-0.4678-1.469-0.625v-1.6875c0-0.3884-0.299-0.6875-0.688-0.6875h-3.625zm1.812 7.5c1.656 0 3 1.344 3 3s-1.344 3-3 3-3-1.344-3-3 1.344-3 3-3z"/>
   <path id="path3315" style="opacity:.05" d="m12 6c-3.3085-2e-7 -6 2.6915-6 6s2.6915 6 6 6c3.3085-0.000001 6-2.6915 6-6s-2.6915-6-6-6zm0 2.7692c1.7834 0 3.2308 1.4474 3.2308 3.2308s-1.4474 3.2308-3.2308 3.2308-3.2308-1.4474-3.2308-3.2308 1.4474-3.2308 3.2308-3.2308z"/>
   <path id="path28" style="stroke:url(#linearGradient2423);fill:none" d="m12 5.5c-3.5841 0-6.5 2.9159-6.5 6.5 0 3.584 2.9159 6.5 6.5 6.5 3.584 0 6.5-2.916 6.5-6.5 0-3.5841-2.916-6.5-6.5-6.5z"/>
  </g>
 </g>
</svg>
